packages/icons/svg/24/ChatBot.svg

<svg width="24" height="24" viewBox="0 0 24 24" fill="none" xmlns="http://www.w3.org/2000/svg">
<path fill-rule="evenodd" clip-rule="evenodd" d="M2 8C2 4.68629 4.68629 2 8 2H16C19.3137 2 22 4.68629 22 8V21C22 21.5523 21.5523 22 21 22H8C4.68629 22 2 19.3137 2 16V8ZM13.125 16.875C13.125 17.4963 12.6213 18 12 18C11.3787 18 10.875 17.4963 10.875 16.875C10.875 16.2537 11.3787 15.75 12 15.75C12.6213 15.75 13.125 16.2537 13.125 16.875ZM10 9.75C10 8.64543 10.8954 7.75 12 7.75C13.1046 7.75 14 8.64543 14 9.75C14 10.3182 13.8631 10.6208 13.7225 10.8142C13.5627 11.0339 13.3322 11.2069 12.97 11.4333C12.9282 11.4594 12.8824 11.4874 12.8336 11.5172C12.5222 11.7077 12.0856 11.9747 11.7474 12.327C11.2929 12.8004 11 13.4214 11 14.25C11 14.8023 11.4477 15.25 12 15.25C12.5523 15.25 13 14.8023 13 14.25C13 13.9536 13.0821 13.8246 13.1901 13.7121C13.3363 13.5598 13.5233 13.4438 13.8497 13.2414C13.9055 13.2068 13.9655 13.1695 14.03 13.1292C14.4178 12.8869 14.9373 12.5442 15.34 11.9905C15.7619 11.4104 16 10.6818 16 9.75C16 7.54086 14.2091 5.75 12 5.75C9.79086 5.75 8 7.54086 8 9.75C8 10.3023 8.44772 10.75 9 10.75C9.55228 10.75 10 10.3023 10 9.75Z" fill="#858585"/>
</svg>

<svg width="24" height="24" fill="none" xmlns="http://www.w3.org/2000/svg" viewBox="0 0 24 24"><path fill-rule="evenodd" clip-rule="evenodd" d="M2 8a6 6 0 016-6h8a6 6 0 016 6v13a1 1 0 01-1 1H8a6 6 0 01-6-6V8zm11.125 8.875a1.125 1.125 0 11-2.25 0 1.125 1.125 0 012.25 0zM10 9.75a2 2 0 114 0c0 .568-.137.87-.277 1.064-.16.22-.39.393-.753.62l-.136.083c-.312.19-.748.458-1.087.81-.454.473-.747 1.094-.747 1.923a1 1 0 102 0c0-.296.082-.425.19-.538.146-.152.333-.268.66-.47l.18-.113c.388-.242.907-.585 1.31-1.138.422-.58.66-1.31.66-2.241a4 4 0 00-8 0 1 1 0 102 0z" fill="currentColor"></path></svg>
